X:32
T: A bhean d thos ae bhruach an t-sruthin, S. 18
N: I0531
O: Irland
S: O'SULLIVAN, Donal: Song of the Irish]
R: Schlaflied]
M: 2/4
L: 1/16
K: Eb
D2 | D2E2F2GA | B2G2A2F2 | G2A2F4 | G2A2F3
E | D2E2F2GA | B2G2A2F2 | D2F2E4 | D2F2E3
E | D2E2F2GA | BBAGA2F2 | G2BAF4 | G2BAF2
E2 | DDE2F2GA | B2AGA2F2 | D2F2E4 | D2F2E4 |
D2E2F2GA | B2B2A2F2 | G2A2F4 | G2A2F4 |
D2E2F2GA | B2B2A2F2 | D2F2E4 | D2F2E2

@@@ Tune index: 7307
